X:1
T: The Express
T: 8 x 40J 3C (RSCDS 20)                EACH TUNE:  AABBB
P: The Ferry
C: arr. Terry Traub 12-28-97, mods. 2-12-2004
R: Jig
M: 6/8
K: A
L: 1/8
e|: "A" cBc "A7"Ace|"D"f3 "E"efg|"A"a2 c "F#m"cBA|"B7"cBB "E"Bed|"A"cBc "A7"Ace|
"D"f3 "E7"efg|"A"a2 c "E"BAB|"A"A3 Aed :||: "A"cea "A7"aga|"D"fdf agf|"A"e2 c "F#m"cBA|
"B"cBB "E"Bed| "A"cBc "A7"Ace|"D"f3 "E7"efg|"A"a2 c "E"BAB|1"A"A3 Aed :|2 "A"A3 A2 |]
